X:1
T:Title
%%score 1 { 2 | 3 }
L:1/8
Q:1/4=145
M:3/4
K:F
V:1 treble nm="Grand Piano, Soprano"
V:2 treble nm="Choir Pad, Bass"
V:3 bass 
V:1
 [FA]4 [FA]2 | [EG]4 F2 | [EB]2 [FA]2 z2 | [DG]2 [B,D]2 z2 | [CF]4 [CF]2 | [EG]4 [EG]2 | [FA]6- | %7
w: By~Charles~Austin~Miles *|||||||
 [FA]6 | [FA]4 [FA]2 | [EG]4 F2 | [EB]2 [FA]2 z2 | [DG]2 [B,D]2 z2 | F4 F2 | [EG]4 [EG]2 | [CF]6- | %15
w: ||||||||
 [CF]6 | [Ec]4 [Ec]2 | [EG]4 [E_A]2 | [FA]4 [GA]2 | [FA]6 | [Fd]4 [Fd]2 | [DF]4 [DG]2 | [^CA]6 | %23
w: ||||||||
 [EB]6 | [FA]4 [FA]2 | [EG]4 F2 | [EB]2 [FA]2 z2 | [DG]2 [B,D]2 z2 | F4 F2 | [EG]4 [EG]2 | [CF]6- | %31
w: ||||||||
 [CF]6 | [Fc]4 [Ec]2 | [Fc]6 | [FA]4 [EG]2 | [CF]4 [CF]2 | [Fd]4 [Fd]2 | [Fc]2 [FA]3 F | [EG]6- | %39
w: ||||||||
 [EG]6 | [Fc]4 [Ec]2 | [Fc]4 [FA]2 | [DG]4 [EA]2 | [GB]4 [FA][DG] | [CF]6 | [CE]6 | [CF]6- | %47
w: ||||||||
 [CF]6 |] %48
w: |
V:2
 C4 C2 | C4 C2 | C2 C2 z2 | B,2 F,2 z2 | A,4 A,2 | C4 C2 | C6- | C6 | C4 C2 | C4 C2 | C2 C2 z2 | %11
 B,2 F,2 z2 | A,4 A,2 | B,4 B,2 | A,6- | A,6 | G,4 G,2 | C2 C4 | C4 ^C2 | D6 | B,4 B,2 | B,4 D,2 | %22
 E,6 | C6 | C4 C2 | C4 C2 | C2 C2 z2 | B,2 F,2 z2 | A,4 A,2 | B,4 B,2 | A,6- | A,6 | A,4 G,2 | %33
 A,6 | C4 B,2 | A,4 A,2 | B,4 B,2 | A,2[K:treble] C3 A, | C6- | C6 | A,4[K:bass] G,2 | A,4 E2 | %42
 B,4 ^C2 | D4 CB, | A,6 | B,6 | A,6- | A,6 |] %48
V:3
 F,4 F,2 | B,4 A,2 | G,2 F,2 z2 | B,,2 B,,2 z2 | F,4 F,2 | C,4 C,2 | F,6- | F,6 | F,4 F,2 | %9
 B,4 A,2 | G,2 F,2 z2 | B,,2 B,,2 z2 | C,4 C,2 | C,4 C,2 | F,6- | F,6 | C,4 C,2 | C,2 C,4 | %18
 F,4 E,2 | D,6 | z6 | B,,4 B,,2 | A,,6 | C,6 | F,4 F,2 | B,4 A,2 | G,2 F,2 z2 | B,,2 B,,2 z2 | %28
 C,4 C,2 | C,4 C,2 | F,6- | F,6 | F,4 C,2 | F,6 | C,4 C,2 | F,4 F,2 | B,,4 B,,2 | F,2 F,3 F, | %38
 C,6- | C,6 | F,4 C,2 | F,4 F,2 | B,,4 A,,2 | G,,4 A,,B,, | C,6 | C,6 | F,6- | F,6 |] %48

